!!!COM: Music21
!!!OTL: A entrada na festa
!!!OMV: pezas_pasacorredoiras_a-entrada-na-festa_a-entrada-na-festa-partitura.musicxml
**kern
*part1
*staff1
*I"Bagpipes
*I'Bag
*clefG^2
*k[]
*M2/4
=1
!LO:TX:a:t=Andante
*MM100
!LO:TX:a:t=[quarter]=100
8cccL
8ggJ
8eeL
8ddJ
=
4cc
8eeL
8ffJ
=
4.gg
8aa
=
4.bb
8ccc
=
4gg
4ee
=
4.ee
8ff
=
4.gg
8aa
=
4.bb
8ccc
=
[2aa
=
4aa]
8aaL
8ggJ
=
4.ff
8aa
!!linebreak:original
=
4.gg
8ff
=
8eeL
8ggJ
[4ccc
!!linebreak:original
=
4ccc]
8bbL
8aaJ
=
4.gg
8aa
=
4.bb
8gg
=
[2ccc
=
4ccc]
4r
=
4cc
4ee
=
8.ggL
16aaJk
8bbL
8aaJ
=
4gg
4bb
=
2ccc
==
*-
!!!system-decoration: s1,s2
